symbols/web/dark_mode/materialsymbolsrounded/dark_mode_wght700grad200_24px.svg

<svg xmlns="http://www.w3.org/2000/svg" height="24" width="24"><path d="M12.025 21.5q-4.1 0-6.812-2.7Q2.5 16.1 2.5 12q0-2.875 1.475-5.338Q5.45 4.2 8.525 3.075q1.45-.5 2.338.087.887.588.787 2.038.05.4.025.712-.025.313-.025.563 0 2.475 1.75 4.2t4.25 1.725q.3 0 .625.012.325.013.65.063 1.425-.075 1.963.75.537.825.037 2.225-1.1 2.725-3.5 4.387-2.4 1.663-5.4 1.663Zm0-3.4q1.4 0 2.675-.6t2.125-1.7q-.1-.025-.225-.062-.125-.038-.225-.063-3.125-.425-5.337-2.562Q8.825 10.975 8.35 7.65q-.025-.125-.05-.263-.025-.137-.025-.212-1.1.875-1.725 2.15T5.925 12q0 2.525 1.788 4.312Q9.5 18.1 12.025 18.1Zm-.625-5.475Z"/></svg>

<svg xmlns="http://www.w3.org/2000/svg" height="24" width="24"><path d="M12.025 21.5Q7.925 21.5 5.213 18.8Q2.5 16.1 2.5 12Q2.5 9.125 3.975 6.662Q5.45 4.2 8.525 3.075Q9.975 2.575 10.863 3.162Q11.75 3.75 11.65 5.2Q11.7 5.6 11.675 5.912Q11.65 6.225 11.65 6.475Q11.65 8.95 13.4 10.675Q15.15 12.4 17.65 12.4Q17.95 12.4 18.275 12.412Q18.6 12.425 18.925 12.475Q20.35 12.4 20.888 13.225Q21.425 14.05 20.925 15.45Q19.825 18.175 17.425 19.837Q15.025 21.5 12.025 21.5ZM12.025 18.1Q13.425 18.1 14.7 17.5Q15.975 16.9 16.825 15.8Q16.725 15.775 16.6 15.738Q16.475 15.7 16.375 15.675Q13.25 15.25 11.038 13.113Q8.825 10.975 8.35 7.65Q8.325 7.525 8.3 7.387Q8.275 7.25 8.275 7.175Q7.175 8.05 6.55 9.325Q5.925 10.6 5.925 12Q5.925 14.525 7.713 16.312Q9.5 18.1 12.025 18.1ZM11.4 12.625Q11.4 12.625 11.4 12.625Q11.4 12.625 11.4 12.625Q11.4 12.625 11.4 12.625Q11.4 12.625 11.4 12.625Q11.4 12.625 11.4 12.625Q11.4 12.625 11.4 12.625Q11.4 12.625 11.4 12.625Q11.4 12.625 11.4 12.625Q11.4 12.625 11.4 12.625Q11.4 12.625 11.4 12.625Q11.4 12.625 11.4 12.625Q11.4 12.625 11.4 12.625Z"/></svg>
